public/static/images/common/logo.svg

<svg width="60" height="36" viewBox="0 0 60 36" fill="none" xmlns="http://www.w3.org/2000/svg">
<path d="M52.9727 35H49.3789V25.4199L43.793 35H40.4141V20.459H44.0078V29.1211L49.1738 20.459H52.9727V35Z" fill="#0081C2"/>
<path d="M30.9609 35V23.2324H26.6641V20.459H38.9102V23.2324H34.6133V35H30.9609Z" fill="#0081C2"/>
<path d="M15.8633 35V20.459H25.6973V23.2324H19.4961V25.7812H25.209V28.5547H19.4961V32.2266H25.6973V35H15.8633Z" fill="#0081C2"/>
<path d="M8.77344 35.2832C6.59245 35.2832 4.86068 34.6257 3.57812 33.3105C2.29557 31.9889 1.6543 30.1335 1.6543 27.7441C1.6543 25.4395 2.29557 23.6035 3.57812 22.2363C4.86719 20.8626 6.60221 20.1758 8.7832 20.1758C9.36263 20.1758 9.88346 20.2083 10.3457 20.2734C10.8079 20.3385 11.2507 20.4297 11.6738 20.5469C12.0059 20.6445 12.3672 20.778 12.7578 20.9473C13.1484 21.1165 13.4642 21.263 13.7051 21.3867V24.8535H13.334C13.1582 24.6973 12.9368 24.5117 12.6699 24.2969C12.403 24.0755 12.1003 23.8607 11.7617 23.6523C11.4232 23.444 11.0488 23.2682 10.6387 23.125C10.235 22.9753 9.81185 22.9004 9.36914 22.9004C8.8418 22.9004 8.35677 22.985 7.91406 23.1543C7.47786 23.3171 7.0612 23.6035 6.66406 24.0137C6.29948 24.3848 6 24.8861 5.76562 25.5176C5.53776 26.1491 5.42383 26.8945 5.42383 27.7539C5.42383 28.6589 5.54427 29.4206 5.78516 30.0391C6.02604 30.651 6.3418 31.1458 6.73242 31.5234C7.11003 31.888 7.52995 32.1517 7.99219 32.3145C8.46094 32.4772 8.92643 32.5586 9.38867 32.5586C9.87044 32.5586 10.3294 32.4805 10.7656 32.3242C11.2018 32.1615 11.5697 31.9824 11.8691 31.7871C12.1947 31.5853 12.4811 31.3802 12.7285 31.1719C12.9759 30.9635 13.1908 30.778 13.373 30.6152H13.7051V34.0332C13.4382 34.1569 13.1289 34.3001 12.7773 34.4629C12.4258 34.6191 12.0645 34.7526 11.6934 34.8633C11.2376 35 10.8112 35.1042 10.4141 35.1758C10.0169 35.2474 9.47005 35.2832 8.77344 35.2832Z" fill="#0081C2"/>
<path d="M45.6484 15L50.5605 0.458984H54.5449L59.457 15H55.6973L54.7891 12.0312H50.2188L49.3105 15H45.6484ZM53.9883 9.39453L52.5039 4.59961L51.0195 9.39453H53.9883Z" fill="#EA4D45"/>
<path d="M44.1934 15H40.5605V5.36133L37.9141 11.582H35.4238L32.7773 5.36133V15H29.3398V0.458984H33.5488L36.7715 7.63672L39.9844 0.458984H44.1934V15Z" fill="#EA4D45"/>
<path d="M27.3867 5.04883C27.3867 5.72591 27.2793 6.37044 27.0645 6.98242C26.8496 7.5944 26.5404 8.10547 26.1367 8.51562C25.8893 8.76953 25.6159 9.00391 25.3164 9.21875C25.0234 9.43359 24.6979 9.61589 24.3398 9.76562C23.9818 9.91536 23.5911 10.0326 23.168 10.1172C22.7513 10.2018 22.2826 10.2441 21.7617 10.2441H19.8477V15H16.1953V0.458984H21.8398C22.6797 0.458984 23.4023 0.537109 24.0078 0.693359C24.6198 0.843099 25.1732 1.08398 25.668 1.41602C26.2148 1.7806 26.638 2.26888 26.9375 2.88086C27.237 3.48633 27.3867 4.20898 27.3867 5.04883ZM23.6367 5.13672C23.6367 4.72656 23.5391 4.375 23.3438 4.08203C23.1484 3.78255 22.9141 3.57747 22.6406 3.4668C22.2956 3.31706 21.9635 3.23242 21.6445 3.21289C21.332 3.18685 20.9056 3.17383 20.3652 3.17383H19.8477V7.5293H20.1016C20.4466 7.5293 20.7721 7.52604 21.0781 7.51953C21.3841 7.51302 21.651 7.49023 21.8789 7.45117C22.0742 7.41862 22.2793 7.35677 22.4941 7.26562C22.7155 7.16797 22.8848 7.06055 23.002 6.94336C23.2493 6.70247 23.4154 6.45182 23.5 6.19141C23.5911 5.93099 23.6367 5.57943 23.6367 5.13672Z" fill="#EA4D45"/>
<path d="M0.941406 15L5.85352 0.458984H9.83789L14.75 15H10.9902L10.082 12.0312H5.51172L4.60352 15H0.941406ZM9.28125 9.39453L7.79688 4.59961L6.3125 9.39453H9.28125Z" fill="#EA4D45"/>
</svg>

<svg width="60" height="36" fill="none" xmlns="http://www.w3.org/2000/svg"><path d="M52.973 35h-3.594v-9.58L43.793 35h-3.379V20.459h3.594v8.662l5.166-8.662h3.799V35zM30.96 35V23.232h-4.296V20.46H38.91v2.773h-4.297V35h-3.652zm-15.097 0V20.459h9.834v2.773h-6.2v2.55h5.712v2.773h-5.713v3.672h6.201V35h-9.834zm-7.09.283c-2.18 0-3.912-.657-5.195-1.973-1.282-1.321-1.924-3.177-1.924-5.566 0-2.305.642-4.14 1.924-5.508 1.29-1.373 3.024-2.06 5.205-2.06.58 0 1.1.032 1.563.097.462.066.905.157 1.328.274.332.098.693.231 1.084.4.39.17.706.316.947.44v3.466h-.371a18.238 18.238 0 00-.664-.556 7.936 7.936 0 00-.908-.645 5.755 5.755 0 00-1.123-.527 3.622 3.622 0 00-1.27-.225 4.05 4.05 0 00-1.455.254c-.436.163-.853.45-1.25.86-.365.37-.664.872-.898 1.504-.228.631-.342 1.377-.342 2.236 0 .905.12 1.667.361 2.285.241.612.557 1.107.947 1.484.378.365.798.629 1.26.792.469.162.934.244 1.397.244.481 0 .94-.078 1.377-.235a5.622 5.622 0 001.103-.537 7.41 7.41 0 00.86-.615c.247-.209.462-.394.644-.557h.332v3.418l-.928.43c-.351.156-.712.29-1.084.4a11.7 11.7 0 01-1.279.313c-.397.071-.944.107-1.64.107z" fill="#0081C2"/><path d="M45.648 15L50.56.459h3.985L59.457 15h-3.76l-.908-2.969h-4.57L49.31 15h-3.662zm8.34-5.605L52.504 4.6 51.02 9.395h2.968zM44.193 15H40.56V5.361l-2.646 6.221h-2.49l-2.647-6.22V15H29.34V.459h4.209l3.223 7.178L39.984.459h4.21V15zM27.387 5.049c0 .677-.108 1.321-.323 1.933a4.076 4.076 0 01-.927 1.534 6.203 6.203 0 01-.82.703 4.728 4.728 0 01-.977.547c-.358.15-.749.267-1.172.351a7.098 7.098 0 01-1.406.127h-1.914V15h-3.653V.459h5.645c.84 0 1.562.078 2.168.234.612.15 1.165.391 1.66.723.547.365.97.853 1.27 1.465.299.605.449 1.328.449 2.168zm-3.75.088c0-.41-.098-.762-.293-1.055-.196-.3-.43-.505-.703-.615a2.959 2.959 0 00-.996-.254c-.313-.026-.74-.04-1.28-.04h-.517V7.53h.254c.345 0 .67-.003.976-.01a5.49 5.49 0 00.8-.068c.196-.032.401-.094.616-.185.221-.098.39-.205.508-.323.247-.24.413-.491.498-.752.091-.26.137-.612.137-1.054zM.941 15L5.854.459h3.984L14.75 15h-3.76l-.908-2.969h-4.57L4.604 15H.94zm8.34-5.605L7.797 4.6 6.313 9.395H9.28z" fill="#EA4D45"/></svg>
